packages/core/src/svgs/tokens/branded/KOM.svg

<svg width="24" height="24" viewBox="0 0 24 24" fill="none" xmlns="http://www.w3.org/2000/svg">
<path d="M15.75 15.3499V13.25L18.25 11.9999L18.3126 16.6499L15.75 15.3499Z" fill="#2891F9"/>
<path d="M10.5689 12.025L16.4125 8.62498L16.7562 5.15625L7.58133 9.21878V12.025H10.5689ZM18.2688 22L20.75 20.4374L8.22508 13.2124L5.44385 14.65L18.2688 22Z" fill="#2B6DEF"/>
<path d="M3.25 3.16873L5.74999 2V19.2749L3.25 20.4436V3.16873ZM15.7499 3.53124L18.2499 2V8.60621L15.7499 9.81243V3.53124Z" fill="#2891F9"/>
<path d="M20.7499 3.46874L18.2499 2V8.56246L20.7499 9.81243V3.46874ZM8.24998 3.16873L5.75 2V19.2749L8.24998 20.4436V3.16873Z" fill="#2BBDF7"/>
<path d="M5.74999 18.8749L3.25 20.4374L5.74374 22L8.24997 20.4374L5.74999 18.8749ZM18.2499 8.25L15.7499 9.81248L18.2499 11.3749L20.7499 9.81248L18.2499 8.25Z" fill="#2B6DEF"/>
<path d="M5.75 9.16246L18.2499 2V5.08122L5.75 11.9999V9.16246Z" fill="#2891F9"/>
<path d="M5.75 12L20.7499 20.4375V13.2501L18.2499 12V16.375L8.23122 10.6063L5.75 12Z" fill="url(#paint0_linear_364_2311)"/>
<defs>
<linearGradient id="paint0_linear_364_2311" x1="7.30562" y1="13.7624" x2="20.943" y2="13.7624" gradientUnits="userSpaceOnUse">
<stop offset="0.35" stop-color="#2B6DEF"/>
<stop offset="0.76" stop-color="#2BBCF7"/>
</linearGradient>
</defs>
</svg>

<svg xmlns="http://www.w3.org/2000/svg" width="24" height="24" fill="none" viewBox="0 0 24 24">
    <path fill="#2891F9" d="M15.75 15.35v-2.1l2.5-1.25.063 4.65z"/>
    <path fill="#2B6DEF" d="m10.569 12.025 5.844-3.4.343-3.469L7.581 9.22v2.806zm7.7 9.975 2.481-1.563-12.525-7.225-2.781 1.438z"/>
    <path fill="#2891F9" d="M3.25 3.169 5.75 2v17.275l-2.5 1.169zm12.5.362L18.25 2v6.606l-2.5 1.206z"/>
    <path fill="#2BBDF7" d="M20.75 3.469 18.25 2v6.562l2.5 1.25zm-12.5-.3L5.75 2v17.275l2.5 1.169z"/>
    <path fill="#2B6DEF" d="m5.75 18.875-2.5 1.562L5.744 22l2.506-1.563zM18.25 8.25l-2.5 1.562 2.5 1.563 2.5-1.563z"/>
    <path fill="#2891F9" d="M5.75 9.162 18.25 2v3.081L5.75 12z"/>
    <path fill="url(#KOM__a)" d="m5.75 12 15 8.438V13.25L18.25 12v4.375L8.23 10.606z"/>
    <defs>
        <linearGradient id="KOM__a" x1="7.306" x2="20.943" y1="13.762" y2="13.762" gradientUnits="userSpaceOnUse">
            <stop offset=".35" stop-color="#2B6DEF"/>
            <stop offset=".76" stop-color="#2BBCF7"/>
        </linearGradient>
    </defs>
</svg>
